packages/core/src/svgs/tokens/mono/RIDE.svg

<svg width="24" height="24" viewBox="0 0 24 24" fill="none" xmlns="http://www.w3.org/2000/svg">
<path fill-rule="evenodd" clip-rule="evenodd" d="M21.0376 11.9849C21.3099 11.6428 21.5752 11.1797 21.8176 10.4544C22.6868 7.88033 20.3435 3.88145 16.2797 3.77162C14.6939 2.77186 12.643 2.11428 10.0248 2.01422C5.40491 1.83911 4.03224 3.30339 3.92375 5.16602C3.52189 5.37739 3.16004 5.6521 2.85507 6.00198C1.46181 7.6048 1.99939 9.77359 2.87778 11.4961C3.09897 7.14693 6.71481 3.70208 11.1367 3.70208C15.6949 3.70208 19.4004 7.37222 19.4004 11.9129C19.4004 16.4594 15.6949 20.1237 11.1367 20.1237C10.0546 20.1276 8.9822 19.9183 7.98104 19.5076C6.9798 19.0972 6.06925 18.4935 5.30135 17.731C4.53343 16.9685 3.92323 16.0623 3.50556 15.064C3.4734 14.9871 3.44243 14.9099 3.41264 14.8322C2.75494 15.6941 2.29088 16.8898 2.8139 18.2359V18.2418C3.65534 20.4088 5.64642 21.0392 7.24676 21.0488C10.463 22.57 12.8352 21.9394 14.4654 21.3943C15.0356 21.2034 15.5433 20.8975 15.9959 20.5081L16.0417 20.5003L16.0614 20.4831C17.9028 20.1557 19.6001 19.297 20.4824 17.0831C20.9617 15.8737 21.2203 14.031 21.025 12.0442L21.0411 12.0249V12.019L21.0376 11.9849ZM4.79037 11.9188C4.79037 8.44857 7.62532 5.62538 11.1367 5.62538C14.648 5.62538 17.4771 8.44857 17.4771 11.9129C17.4771 15.3772 14.6422 18.2003 11.1367 18.2003C7.62532 18.2003 4.79037 15.3772 4.79037 11.9188Z" fill="white"/>
</svg>

<svg xmlns="http://www.w3.org/2000/svg" width="24" height="24" fill="none" viewBox="0 0 24 24">
    <path fill="#fff" fill-rule="evenodd" d="M21.038 11.985c.272-.342.537-.805.78-1.53.869-2.575-1.475-6.574-5.538-6.683-1.586-1-3.637-1.658-6.255-1.758-4.62-.175-5.993 1.29-6.101 3.152a3.7 3.7 0 0 0-1.069.836C1.462 7.605 2 9.774 2.878 11.496c.221-4.35 3.837-7.794 8.259-7.794 4.558 0 8.263 3.67 8.263 8.21 0 4.547-3.705 8.212-8.263 8.212a8.24 8.24 0 0 1-7.724-5.292c-.658.862-1.122 2.058-.6 3.404v.006c.842 2.167 2.833 2.797 4.434 2.807 3.216 1.521 5.588.89 7.218.345a4.6 4.6 0 0 0 1.53-.886l.047-.008.02-.017c1.84-.327 3.538-1.186 4.42-3.4.48-1.21.738-3.052.543-5.039l.016-.02v-.005zM4.79 11.919c0-3.47 2.835-6.294 6.347-6.294 3.511 0 6.34 2.824 6.34 6.288s-2.835 6.287-6.34 6.287c-3.512 0-6.347-2.823-6.347-6.281" clip-rule="evenodd"/>
</svg>
